X: 116
T:Courtesan's Jig
K:D  ;1 sharp obviously modal
M:6/8
L:1/8
C:Rodney Miller
"D"FAB A2 d|cAG Aef|"Am"gAA fAA|edc A2 G|!
"D"FAB A2 d|cAG Aef|"Am"gAA fAA|"A"ed^c "D"d3:||!
||:"C"cde e2e|efg a2 g|"Bm"[B3f3] "C"[c3g3]|"Bm"fed "(Em)"e2 d|!
"C"cde e2e|efg a2 g|"D"f2 f "A"ge^c|"D"d3-d3:||
% <A name="D1X117">
